resources/dark/snooze.svg

<svg height="21" viewBox="0 0 20 21" width="20" xmlns="http://www.w3.org/2000/svg"><g fill="none" fill-rule="evenodd" transform="translate(-2 -1)"><path d="m0 0h24v24h-24z"/><path d="m9 11h3.63l-3.63 4.2v1.8h6v-2h-3.63l3.63-4.2v-1.8h-6zm7.056-7.654 1.282-1.535 4.607 3.85-1.28 1.54zm-12.72 3.844-1.28-1.536 4.606-3.844 1.28 1.536zm8.664-1.19c3.86 0 7 3.14 7 7s-3.14 7-7 7-7-3.14-7-7 3.14-7 7-7zm0-2c-4.97 0-9 4.03-9 9s4.03 9 9 9 9-4.03 9-9-4.03-9-9-9z" fill="#1d1d1d"/></g></svg>

<?xml version="1.0" encoding="UTF-8"?>
<svg width="20px" height="21px" viewBox="0 0 20 21" version="1.1" xmlns="http://www.w3.org/2000/svg" xmlns:xlink="http://www.w3.org/1999/xlink">
    <!-- Generator: Sketch 52.5 (67469) - http://www.bohemiancoding.com/sketch -->
    <title>snooze</title>
    <desc>Created with Sketch.</desc>
    <g id="Icons" stroke="none" stroke-width="1" fill="none" fill-rule="evenodd">
        <g id="Outlined" transform="translate(-170.000000, -995.000000)">
            <g id="Av" transform="translate(100.000000, 852.000000)">
                <g id="Outlined-/-AV-/-snooze" transform="translate(68.000000, 142.000000)">
                    <g>
                        <polygon id="Path" points="0 0 24 0 24 24 0 24"></polygon>
                        <path d="M9,11 L12.63,11 L9,15.2 L9,17 L15,17 L15,15 L11.37,15 L15,10.8 L15,9 L9,9 L9,11 Z M16.056,3.346 L17.338,1.811 L21.945,5.661 L20.665,7.201 L16.056,3.346 Z M3.336,7.19 L2.056,5.654 L6.662,1.81 L7.942,3.346 L3.336,7.19 Z M12,6 C15.86,6 19,9.14 19,13 C19,16.86 15.86,20 12,20 C8.14,20 5,16.86 5,13 C5,9.14 8.14,6 12,6 Z M12,4 C7.03,4 3,8.03 3,13 C3,17.97 7.03,22 12,22 C16.97,22 21,17.97 21,13 C21,8.03 16.97,4 12,4 Z" id="🔹-Icon-Color" fill="#1D1D1D"></path>
                    </g>
                </g>
            </g>
        </g>
    </g>
</svg>
